SVG_Azure_All/DNS Zone (Private).svg

<?xml version="1.0" encoding="UTF-8" standalone="no"?>
<!-- Generated by Microsoft Visio, SVG Export DNS Zone (Private).svg Page-1 -->

<svg
   xmlns:dc="http://purl.org/dc/elements/1.1/"
   xmlns:cc="http://creativecommons.org/ns#"
   xmlns:rdf="http://www.w3.org/1999/02/22-rdf-syntax-ns#"
   xmlns:svg="http://www.w3.org/2000/svg"
   xmlns="http://www.w3.org/2000/svg"
   xmlns:sodipodi="http://sodipodi.sourceforge.net/DTD/sodipodi-0.dtd"
   xmlns:inkscape="http://www.inkscape.org/namespaces/inkscape"
   width="0.89451885in"
   height="0.89722198in"
   viewBox="0 0 64.405453 64.599963"
   xml:space="preserve"
   class="st4"
   version="1.1"
   id="svg43"
   sodipodi:docname="DNS Zone (Private).svg"
   style="font-size:12px;overflow:visible;color-interpolation-filters:sRGB;fill:none;fill-rule:evenodd;stroke-linecap:square;stroke-miterlimit:3"
   inkscape:version="0.92.5 (2060ec1f9f, 2020-04-08)"><metadata
   id="metadata47"><rdf:RDF><cc:Work
       rdf:about=""><dc:format>image/svg+xml</dc:format><dc:type
         rdf:resource="http://purl.org/dc/dcmitype/StillImage" /></cc:Work></rdf:RDF></metadata><sodipodi:namedview
   pagecolor="#ffffff"
   bordercolor="#666666"
   borderopacity="1"
   objecttolerance="10"
   gridtolerance="10"
   guidetolerance="10"
   inkscape:pageopacity="0"
   inkscape:pageshadow="2"
   inkscape:window-width="640"
   inkscape:window-height="480"
   id="namedview45"
   showgrid="false"
   inkscape:zoom="1.3372717"
   inkscape:cx="42.734734"
   inkscape:cy="42.910318"
   inkscape:window-x="0"
   inkscape:window-y="0"
   inkscape:window-maximized="0"
   inkscape:current-layer="svg43" />
	<style
   type="text/css"
   id="style2">
	<![CDATA[
		.st1 {fill:url(#grad0-6);stroke:none;stroke-linecap:butt;stroke-width:34}
		.st2 {fill:#5ea0ef;stroke:none;stroke-linecap:butt;stroke-width:34}
		.st3 {fill:#ffffff;stroke:none;stroke-linecap:butt;stroke-width:34}
		.st4 {fill:none;fill-rule:evenodd;font-size:12px;overflow:visible;stroke-linecap:square;stroke-miterlimit:3}
	]]>
	</style>

	<defs
   id="Patterns_And_Gradients">
		<linearGradient
   id="grad0-6"
   x1="-6.7526872"
   y1="74.412054"
   x2="57.752949"
   y2="74.412054"
   gradientTransform="scale(0.99849822,1.001504)"
   gradientUnits="userSpaceOnUse">
			<stop
   offset="0.26"
   stop-color="#50e6ff"
   stop-opacity="1"
   id="stop4" />
			<stop
   offset="0.42"
   stop-color="#79eaff"
   stop-opacity="1"
   id="stop6" />
			<stop
   offset="0.58"
   stop-color="#99edff"
   stop-opacity="1"
   id="stop8" />
			<stop
   offset="0.735"
   stop-color="#b0efff"
   stop-opacity="1"
   id="stop10" />
			<stop
   offset="0.875"
   stop-color="#bef1ff"
   stop-opacity="1"
   id="stop12" />
			<stop
   offset="1"
   stop-color="#c3f1ff"
   stop-opacity="1"
   id="stop14" />
		</linearGradient>
	</defs>
	<g
   id="g41"
   transform="translate(-33.996401,-33.762325)">
		<title
   id="title18">Page-1</title>
		<g
   id="group5569-1"
   transform="translate(38.4763,-38.714)">
			<title
   id="title20">DNS Zone (Private)</title>
			<g
   id="group5570-2">
				<title
   id="title22">Icon-networking-64</title>
				<g
   id="shape5571-3"
   transform="translate(2.25934,-2.04777)">
					<title
   id="title24">Sheet.5571</title>
					<path
   d="M 45.07,132.36 A 32.124239,32.249054 0 1 1 5.7,81.39 l 0.34,-0.23 a 32.111217,32.236027 0 0 1 39.03,51.2 z"
   class="st1"
   id="path26"
   inkscape:connector-curvature="0"
   style="fill:url(#grad0-6);stroke:none;stroke-width:34;stroke-linecap:butt" />
				</g>
				<g
   id="shape5572-7">
					<title
   id="title29">Sheet.5572</title>
					<path
   d="M 27.64,75.67 A 29.0489,29.1618 -180 1 0 56.69,104.83 29.0866,29.1997 -180 0 0 27.64,75.67 Z M 47.1,85.49 A 27.8401,27.9483 0 0 1 38.98,88.52 33.3552,33.4848 -180 0 0 34.25,78.28 27.1979,27.3036 0 0 1 47.1,85.49 Z M 27.64,77.3 a 24.8936,24.9904 0 0 1 4.12,0.34 28.2556,28.3654 0 0 1 5.78,11.37 57.1156,57.3376 0 0 1 -20.59,0 27.8778,27.9862 0 0 1 5.71,-11.14 27.7267,27.8345 0 0 1 4.98,-0.57 z m -7.55,0.98 A 32.9397,33.0677 -180 0 0 15.29,88.45 21.0784,21.1603 0 0 1 8.11,85.53 27.7645,27.8724 0 0 1 20.09,78.28 Z M 7.7,123.79 a 19.9074,19.9847 0 0 1 6.72,-2.88 26.7446,26.8486 -180 0 0 5.1,10.31 27.3868,27.4932 0 0 1 -11.82,-7.43 z m 24.21,8.34 a 26.7446,26.8486 0 0 1 -4.27,0.23 25.8002,25.9005 0 0 1 -5.44,-0.57 22.6649,22.753 0 0 1 -6.3,-11.38 55.6424,55.8586 0 0 1 22.21,0 22.6649,22.753 0 0 1 -6.39,11.38 z m 2.76,-0.61 a 26.9335,27.0382 -180 0 0 5.21,-10.61 25.2336,25.3317 0 0 1 7.56,3.14 26.9335,27.0382 0 0 1 -12.77,7.32 z m 5.59,-12.21 c 0.3,-1.36 0.57,-2.76 0.76,-4.24 l -1.74,0.41 c -0.19,1.18 -0.38,2.35 -0.64,3.45 a 57.5311,57.7547 -180 0 0 -23.01,0 c -0.26,-1.02 -0.45,-2.12 -0.64,-3.26 a 1.0577,1.06181 0 0 1 0,-0.34 l -1.74,-0.49 a 8.91487,8.94952 -180 0 0 0,1.06 c 0,1.21 0.42,2.35 0.64,3.45 a 22.2872,22.3738 -180 0 0 -7.55,3.22 27.349,27.4553 0 0 1 0.41,-35.64 23.7604,23.8527 -180 0 0 7.86,3.26 c -0.26,0.91 -0.49,1.9 -0.68,2.88 -0.19,0.99 0,0.95 -0.3,1.4 l 1.77,-0.41 v -0.65 c 0.23,-0.98 0.46,-1.93 0.72,-2.84 a 56.2468,56.4654 -180 0 0 11.52,0.91 56.6623,56.8825 -180 0 0 10.51,-0.99 c 0.26,1.03 0.52,2.13 0.75,3.23 l 1.74,0.41 C 40.36,92.77 40.06,91.5 39.73,90.34 a 29.2,29.3135 -180 0 0 8.69,-3.45 27.2735,27.3795 0 0 1 0.23,35.99 27.5001,27.607 -180 0 0 -8.39,-3.68 z"
   class="st2"
   id="path31"
   inkscape:connector-curvature="0"
   style="fill:#5ea0ef;stroke:none;stroke-width:34;stroke-linecap:butt" />
				</g>
				<g
   id="shape5573-9"
   transform="translate(7.54782,-19.3021)">
					<title
   id="title34">Sheet.5573</title>
					<path
   d="m 0.04,116.55 a 29.9177,30.034 0 0 1 4.38,-0.31 9.21707,9.25289 0 0 1 6.46,1.97 7.55497,7.58434 0 0 1 2.23,5.54 8.34824,8.38069 0 0 1 -2.31,6.22 9.82146,9.85964 0 0 1 -7.02,2.31 A 34.6395,34.7742 0 0 1 0,132.09 Z m 2.08,14.14 a 15.1099,15.1687 -180 0 0 2.07,0 6.11953,6.14331 -180 0 0 6.76,-6.86 5.66623,5.68825 -180 0 0 -6.45,-6.15 11.9746,12.0212 -180 0 0 -2.38,0 z m 13.67,1.44 v -15.96 h 2.23 l 5.1,7.96 a 46.0098,46.1886 0 0 1 2.87,5.2 c -0.19,-2.13 -0.23,-4.06 -0.23,-6.57 v -6.59 h 1.89 v 15.96 h -2.08 l -4.98,-8 c -1.1,-1.78 -2.16,-3.79 -2.99,-5.31 v 13.42 z m 15.22,-2.5 a 7.55497,7.58434 -180 0 0 3.78,1.02 c 2.12,0 3.32,-1.1 3.32,-2.73 0,-1.63 -0.83,-2.35 -2.98,-3.15 -2.15,-0.79 -4.23,-2.27 -4.23,-4.55 a 4.60853,4.62645 0 0 1 5.17,-4.32 7.55497,7.58434 0 0 1 3.52,0.76 l -0.61,1.71 a 6.1573,6.18123 -180 0 0 -3.02,-0.76 c -2.19,0 -3.02,1.29 -3.02,2.39 0,1.1 0.98,2.23 3.17,3.07 2.19,0.83 4.08,2.35 4.08,4.7 0,2.35 -1.81,4.59 -5.59,4.59 a 8.15937,8.19108 0 0 1 -4.04,-1.03 z"
   class="st3"
   id="path36"
   inkscape:connector-curvature="0"
   style="fill:#ffffff;stroke:none;stroke-width:34;stroke-linecap:butt" />
				</g>
			</g>
		</g>
	</g>
</svg>

<?xml version="1.0" encoding="UTF-8" standalone="no"?>
<!DOCTYPE svg PUBLIC "-//W3C//DTD SVG 1.1//EN" "http://www.w3.org/Graphics/SVG/1.1/DTD/svg11.dtd">
<!-- Generated by Microsoft Visio, SVG Export DNS Zone (Private).svg Page-1 -->
<svg xmlns="http://www.w3.org/2000/svg" xmlns:xlink="http://www.w3.org/1999/xlink" xmlns:ev="http://www.w3.org/2001/xml-events"
		width="1.83465in" height="1.83832in" viewBox="0 0 132.095 132.359" xml:space="preserve" color-interpolation-filters="sRGB"
		class="st4">
	<style type="text/css">
	<![CDATA[
		.st1 {fill:url(#grad0-6);stroke:none;stroke-linecap:butt;stroke-width:34}
		.st2 {fill:#5ea0ef;stroke:none;stroke-linecap:butt;stroke-width:34}
		.st3 {fill:#ffffff;stroke:none;stroke-linecap:butt;stroke-width:34}
		.st4 {fill:none;fill-rule:evenodd;font-size:12px;overflow:visible;stroke-linecap:square;stroke-miterlimit:3}
	]]>
	</style>

	<defs id="Patterns_And_Gradients">
		<linearGradient id="grad0-6" x1="0" y1="0" x2="1" y2="0" gradientTransform="rotate(-80.016683414876 0.5 0.5)">
			<stop offset="0.26" stop-color="#50e6ff" stop-opacity="1"/>
			<stop offset="0.42" stop-color="#79eaff" stop-opacity="1"/>
			<stop offset="0.58" stop-color="#99edff" stop-opacity="1"/>
			<stop offset="0.735" stop-color="#b0efff" stop-opacity="1"/>
			<stop offset="0.875" stop-color="#bef1ff" stop-opacity="1"/>
			<stop offset="1" stop-color="#c3f1ff" stop-opacity="1"/>
		</linearGradient>
	</defs>
	<g>
		<title>Page-1</title>
		<g id="group5450-1" transform="translate(38.4763,-38.714)">
			<title>DNS Zone (Private)</title>
			<g id="group5451-2">
				<title>Icon-networking-64</title>
				<g id="shape5452-3" transform="translate(2.25934,-2.04777)">
					<title>Sheet.5452</title>
					<path d="M45.07 132.36 A32.1203 32.2451 0 1 1 5.7 81.39 L6.04 81.16 A32.1086 32.2334 0 0 1 45.07 132.36 Z"
							class="st1"/>
				</g>
				<g id="shape5453-7">
					<title>Sheet.5453</title>
					<path d="M27.64 75.67 A29.0489 29.1618 -180 1 0 56.69 104.83 A29.0866 29.1997 -180 0 0 27.64 75.67 ZM47.1 85.49
								 A27.8401 27.9483 0 0 1 38.98 88.52 A33.3552 33.4848 -180 0 0 34.25 78.28 A27.1979 27.3036 0 0 1
								 47.1 85.49 ZM27.64 77.3 A24.8936 24.9904 0 0 1 31.76 77.64 A28.2556 28.3654 0 0 1 37.54 89.01 A57.1156
								 57.3376 0 0 1 16.95 89.01 A27.8778 27.9862 0 0 1 22.66 77.87 A27.7267 27.8345 0 0 1 27.64 77.3 ZM20.09
								 78.28 A32.9397 33.0677 -180 0 0 15.29 88.45 A21.0784 21.1603 0 0 1 8.11 85.53 A27.7645 27.8724 0
								 0 1 20.09 78.28 ZM7.7 123.79 A19.9074 19.9847 0 0 1 14.42 120.91 A26.7446 26.8486 -180 0 0 19.52
								 131.22 A27.3868 27.4932 0 0 1 7.7 123.79 ZM31.91 132.13 A26.7446 26.8486 0 0 1 27.64 132.36 A25.8002
								 25.9005 0 0 1 22.2 131.79 A22.6649 22.753 0 0 1 15.9 120.41 A55.6424 55.8586 0 0 1 38.11 120.41
								 A22.6649 22.753 0 0 1 31.72 131.79 L31.91 132.13 ZM34.67 131.52 A26.9335 27.0382 -180 0 0 39.88
								 120.91 A25.2336 25.3317 0 0 1 47.44 124.05 A26.9335 27.0382 0 0 1 34.67 131.37 L34.67 131.52 ZM40.26
								 119.31 C40.56 117.95 40.83 116.55 41.02 115.07 L39.28 115.48 C39.09 116.66 38.9 117.83 38.64 118.93
								 A57.5311 57.7547 -180 0 0 15.63 118.93 C15.37 117.91 15.18 116.81 14.99 115.67 A1.0577 1.06181 0
								 0 1 14.99 115.33 L13.25 114.84 A8.91487 8.94952 -180 0 0 13.25 115.9 C13.25 117.11 13.67 118.25
								 13.89 119.35 A22.2872 22.3738 -180 0 0 6.34 122.57 A27.349 27.4553 0 0 1 6.75 86.93 A23.7604 23.8527
								 -180 0 0 14.61 90.19 C14.35 91.1 14.12 92.09 13.93 93.07 C13.74 94.06 13.93 94.02 13.63 94.47 L15.4
								 94.06 L15.4 93.41 C15.63 92.43 15.86 91.48 16.12 90.57 A56.2468 56.4654 -180 0 0 27.64 91.48 A56.6623
								 56.8825 -180 0 0 38.15 90.49 C38.41 91.52 38.67 92.62 38.9 93.72 L40.64 94.13 C40.36 92.77 40.06
								 91.5 39.73 90.34 A29.2 29.3135 -180 0 0 48.42 86.89 A27.2735 27.3795 0 0 1 48.65 122.88 A27.5001
								 27.607 -180 0 0 40.26 119.2 L40.26 119.31 Z" class="st2"/>
				</g>
				<g id="shape5454-9" transform="translate(7.54782,-19.3021)">
					<title>Sheet.5454</title>
					<path d="M0.04 116.55 A29.9177 30.034 0 0 1 4.42 116.24 A9.21707 9.25289 0 0 1 10.88 118.21 A7.55497 7.58434
								 0 0 1 13.11 123.75 A8.34824 8.38069 0 0 1 10.8 129.97 A9.82146 9.85964 0 0 1 3.78 132.28 A34.6395
								 34.7742 0 0 1 0 132.09 L0.04 116.55 ZM2.12 130.69 A15.1099 15.1687 -180 0 0 4.19 130.69 A6.11953
								 6.14331 -180 0 0 10.95 123.83 A5.66623 5.68825 -180 0 0 4.5 117.68 A11.9746 12.0212 -180 0 0 2.12
								 117.68 L2.12 130.69 ZM15.79 132.13 L15.79 116.17 L18.02 116.17 L23.12 124.13 A46.0098 46.1886 0
								 0 1 25.99 129.33 C25.8 127.2 25.76 125.27 25.76 122.76 L25.76 116.17 L27.65 116.17 L27.65 132.13
								 L25.57 132.13 L20.59 124.13 C19.49 122.35 18.43 120.34 17.6 118.82 L17.6 132.24 L15.79 132.13 ZM31.01
								 129.63 A7.55497 7.58434 -180 0 0 34.79 130.65 C36.91 130.65 38.11 129.55 38.11 127.92 C38.11 126.29
								 37.28 125.57 35.13 124.77 C32.98 123.98 30.9 122.5 30.9 120.22 A4.60853 4.62645 0 0 1 36.07 115.9
								 A7.55497 7.58434 0 0 1 39.59 116.66 L38.98 118.37 A6.1573 6.18123 -180 0 0 35.96 117.61 C33.77 117.61
								 32.94 118.9 32.94 120 C32.94 121.1 33.92 122.23 36.11 123.07 C38.3 123.9 40.19 125.42 40.19 127.77
								 C40.19 130.12 38.38 132.36 34.6 132.36 A8.15937 8.19108 0 0 1 30.56 131.33 L31.01 129.63 Z"
							class="st3"/>
				</g>
			</g>
		</g>
	</g>
</svg>
